icons-dark/actions/24/run-build-clean.svg

<?xml version="1.0" encoding="UTF-8" standalone="no"?>
<!-- Created with Inkscape (http://www.inkscape.org/) -->

<svg
   xmlns:dc="http://purl.org/dc/elements/1.1/"
   xmlns:cc="http://creativecommons.org/ns#"
   xmlns:rdf="http://www.w3.org/1999/02/22-rdf-syntax-ns#"
   xmlns:svg="http://www.w3.org/2000/svg"
   xmlns="http://www.w3.org/2000/svg"
   xmlns:sodipodi="http://sodipodi.sourceforge.net/DTD/sodipodi-0.dtd"
   xmlns:inkscape="http://www.inkscape.org/namespaces/inkscape"
   width="24"
   height="24"
   id="svg3049"
   version="1.1"
   inkscape:version="0.91 r13725"
   sodipodi:docname="run-build-clean.svg"
   inkscape:export-filename="/home/uri/.kde/share/icons/NITRUX-KDE/16x16/actions/view-right-new.png"
   inkscape:export-xdpi="30"
   inkscape:export-ydpi="30">
  <defs
     id="defs3051" />
  <sodipodi:namedview
     id="base"
     pagecolor="#ffffff"
     bordercolor="#666666"
     borderopacity="1.0"
     inkscape:pageopacity="0.0"
     inkscape:pageshadow="2"
     inkscape:zoom="24.451296"
     inkscape:cx="7.3897747"
     inkscape:cy="15.229305"
     inkscape:document-units="px"
     inkscape:current-layer="layer1"
     showgrid="true"
     fit-margin-top="0"
     fit-margin-left="0"
     fit-margin-right="0"
     fit-margin-bottom="0"
     inkscape:window-width="2560"
     inkscape:window-height="955"
     inkscape:window-x="0"
     inkscape:window-y="35"
     inkscape:window-maximized="1"
     inkscape:showpageshadow="false"
     borderlayer="true">
    <sodipodi:guide
       position="3,21"
       orientation="18,0"
       id="guide4067" />
    <sodipodi:guide
       position="3,3"
       orientation="0,18"
       id="guide4069" />
    <sodipodi:guide
       position="21,3"
       orientation="-18,0"
       id="guide4071" />
    <sodipodi:guide
       position="21,21"
       orientation="0,-18"
       id="guide4073" />
    <sodipodi:guide
       position="4,20"
       orientation="16,0"
       id="guide4077" />
    <sodipodi:guide
       position="4,4"
       orientation="0,16"
       id="guide4079" />
    <sodipodi:guide
       position="20,4"
       orientation="-16,0"
       id="guide4081" />
    <sodipodi:guide
       position="20,20"
       orientation="0,-16"
       id="guide4083" />
    <inkscape:grid
       type="xygrid"
       id="grid4085"
       originx="0.99999557"
       originy="0.99997045" />
  </sodipodi:namedview>
  <metadata
     id="metadata3054">
    <rdf:RDF>
      <cc:Work
         rdf:about="">
        <dc:format>image/svg+xml</dc:format>
        <dc:type
           rdf:resource="http://purl.org/dc/dcmitype/StillImage" />
        <dc:title></dc:title>
      </cc:Work>
    </rdf:RDF>
  </metadata>
  <g
     inkscape:label="Capa 1"
     inkscape:groupmode="layer"
     id="layer1"
     transform="translate(-420.71429,-524.79071)">
    <path
       style="opacity:1;fill:#f2f2f2;fill-opacity:1;stroke:none;stroke-width:2.79999995;stroke-miterlimit:4;stroke-dasharray:none;stroke-opacity:0.55026455"
       d="m 430.71429,533.79074 0,6 5,-3 -5,-3 z"
       id="rect4144"
       inkscape:connector-curvature="0" />
    <path
       style="fill:#f2f2f2;fill-opacity:1;fill-rule:evenodd;stroke:none;stroke-width:1px;stroke-linecap:butt;stroke-linejoin:miter;stroke-opacity:1"
       d="m 15,15 -2,2 2,2 4,0 0,-4 z m 0.6,1 2.4,0 0,2 -2.4,0 -1,-1 z"
       transform="translate(421.71429,525.79074)"
       id="path3349"
       inkscape:connector-curvature="0"
       sodipodi:nodetypes="cccccccccccc" />
    <path
       style="opacity:1;fill:#f2f2f2;fill-opacity:1;stroke:none"
       d="M 11,3 C 10.324795,3.00379 9.6527857,3.093036 9,3.265625 l 0,1.0332031 0,0.011719 A 7,7 0 0 0 7.6835938,4.8554688 L 7.6757838,4.8476588 6.943362,4.115237 C 5.7764063,4.803287 4.8032868,5.7764065 4.115237,6.943362 l 0.5214844,0.5214844 0.21875,0.21875 A 7,7 0 0 0 4.3085938,9 L 4.2949219,9 3.2597656,9 C 3.089154,9.6530391 3.001872,10.325045 3,11 c 0.00378,0.675205 0.093036,1.347214 0.265625,2 l 1.0332031,0 0.011719,0 a 7,7 0 0 0 0.5449219,1.316406 l -0.21875,0.21875 -0.5214844,0.521485 c 0.6880498,1.166955 1.6611693,2.140075 2.828125,2.828125 l 0.5214844,-0.521485 0.21875,-0.21875 A 7,7 0 0 0 9,17.691406 L 9,18 9,18.740234 c 0.6530391,0.170612 1.325044,0.257894 2,0.259766 0.334998,-0.0019 0.668533,-0.02662 1,-0.07031 l 0,-1.00586 C 11.669555,17.97264 11.334906,17.99887 11,18 10.664546,17.999498 10.331064,17.97413 10,17.92578 L 10,17.92188 10,17 10,16.910156 A 6,6 0 0 1 7.5273438,15.886719 l -0.0625,0.0625 -0.6503907,0.65039 -0.00391,0.0039 C 6.2742384,16.201454 5.7991129,15.72484 5.3984375,15.1875 l 0.00195,-0.002 0.6503906,-0.650391 0.064453,-0.06445 A 6,6 0 0 1 5.0859375,12 L 5,12 4.0800781,12 4.0761719,12 C 4.0273622,11.669555 4.0011276,11.334906 4,11 4.0005022,10.664546 4.025871,10.331064 4.074219,10 L 4.078125,10 5,10 5.0898438,10 A 6,6 0 0 1 6.1132812,7.5273438 l -0.0625,-0.0625 -0.6503906,-0.6503907 -0.00391,-0.00391 C 5.7985462,6.2742384 6.2751604,5.7991129 6.8125,5.3984375 l 0.00195,0.00195 0.6503907,0.6503906 0.064453,0.064453 A 6,6 0 0 1 10,5.0859375 L 10,5 10,4.0800781 10,4.0761719 C 10.330445,4.0273622 10.665094,4.0011276 11,4 c 0.335454,5.001e-4 0.668936,0.02587 1,0.074219 L 12,4.078125 12,5 12,5.089844 a 6,6 0 0 1 2.472656,1.0234374 l 0.0625,-0.0625 0.650391,-0.6503906 0.0039,-0.00391 c 0.536309,0.4020618 1.011435,0.878676 1.412109,1.4160156 l -0.002,0.00195 -0.65039,0.6503907 -0.06445,0.064453 A 6,6 0 0 1 16.914062,10 L 17,10 l 0.919922,0 0.0039,0 c 0.04881,0.330445 0.07504,0.665094 0.07617,1 -4.95e-4,0.335454 -0.02587,0.668936 -0.07422,1 l -0.0039,0 L 17,12 16.91016,12 a 6,6 0 0 1 -0.730468,2 l 1.134765,0 A 7,7 0 0 0 17.69141,13 L 18,13 18.740234,13 C 18.910846,12.346961 18.998128,11.674956 19,11 18.996215,10.324795 18.906964,9.6527857 18.734375,9 L 18,9 17.689453,9 A 7,7 0 0 0 17.144531,7.6835938 l 0.0078,-0.00781 0.732422,-0.7324218 C 17.196716,5.7764039 16.223597,4.8032844 15.056641,4.1152344 L 14.328125,4.84375 14.316406,4.8554688 A 7,7 0 0 0 13,4.3085938 l 0,-0.013672 0,-1.0351563 C 12.346961,3.0891541 11.674956,3.0018721 11,3 Z"
       transform="translate(421.71429,525.79074)"
       id="path3344"
       inkscape:connector-curvature="0" />
  </g>
</svg>

<svg xmlns="http://www.w3.org/2000/svg" viewBox="0 0 24 24">
  <defs id="defs3051">
    <style type="text/css" id="current-color-scheme">
      .ColorScheme-Text {
        color:#f2f2f2
      }
      </style>
  </defs>
  <a transform="translate(1,1)">
 <path 
     style="fill:currentColor;fill-opacity:1;stroke:none" 
     d="M 11 3 C 10.324795 3.003785 9.6527857 3.0930363 9 3.265625 L 9 4.2988281 L 9 4.3105469 A 7 7 0 0 0 7.6835938 4.8554688 L 7.6757812 4.8476562 L 6.9433594 4.1152344 C 5.7764037 4.8032844 4.8032842 5.7764039 4.1152344 6.9433594 L 4.6367188 7.4648438 L 4.8554688 7.6835938 A 7 7 0 0 0 4.3085938 9 L 4.2949219 9 L 3.2597656 9 C 3.089154 9.6530391 3.001872 10.325045 3 11 C 3.00378 11.675205 3.093036 12.347214 3.265625 13 L 4.2988281 13 L 4.3105469 13 A 7 7 0 0 0 4.8554688 14.316406 L 4.6367188 14.535156 L 4.1152344 15.056641 C 4.8032842 16.223596 5.7764037 17.196716 6.9433594 17.884766 L 7.4648438 17.363281 L 7.6835938 17.144531 A 7 7 0 0 0 9 17.691406 L 9 18 L 9 18.740234 C 9.6530391 18.910846 10.325044 18.998128 11 19 C 11.334998 18.998115 11.668533 18.97338 12 18.929688 L 12 17.923828 C 11.669555 17.972638 11.334906 17.998872 11 18 C 10.664546 17.999498 10.331064 17.974129 10 17.925781 L 10 17.921875 L 10 17 L 10 16.910156 A 6 6 0 0 1 7.5273438 15.886719 L 7.4648438 15.949219 L 6.8144531 16.599609 L 6.8105469 16.603516 C 6.2742384 16.201454 5.7991129 15.72484 5.3984375 15.1875 L 5.4003906 15.185547 L 6.0507812 14.535156 L 6.1152344 14.470703 A 6 6 0 0 1 5.0859375 12 L 5 12 L 4.0800781 12 L 4.0761719 12 C 4.0273622 11.669555 4.0011276 11.334906 4 11 C 4.0005022 10.664546 4.0258707 10.331064 4.0742188 10 L 4.078125 10 L 5 10 L 5.0898438 10 A 6 6 0 0 1 6.1132812 7.5273438 L 6.0507812 7.4648438 L 5.4003906 6.8144531 L 5.3964844 6.8105469 C 5.7985462 6.2742384 6.2751604 5.7991129 6.8125 5.3984375 L 6.8144531 5.4003906 L 7.4648438 6.0507812 L 7.5292969 6.1152344 A 6 6 0 0 1 10 5.0859375 L 10 5 L 10 4.0800781 L 10 4.0761719 C 10.330445 4.0273622 10.665094 4.0011276 11 4 C 11.335454 4.0005001 11.668936 4.0258701 12 4.0742188 L 12 4.078125 L 12 5 L 12 5.0898438 A 6 6 0 0 1 14.472656 6.1132812 L 14.535156 6.0507812 L 15.185547 5.4003906 L 15.189453 5.3964844 C 15.725762 5.7985462 16.200888 6.2751604 16.601562 6.8125 L 16.599609 6.8144531 L 15.949219 7.4648438 L 15.884766 7.5292969 A 6 6 0 0 1 16.914062 10 L 17 10 L 17.919922 10 L 17.923828 10 C 17.972638 10.330445 17.998873 10.665094 18 11 C 17.999505 11.335454 17.974131 11.668936 17.925781 12 L 17.921875 12 L 17 12 L 16.910156 12 A 6 6 0 0 1 16.179688 14 L 17.314453 14 A 7 7 0 0 0 17.691406 13 L 18 13 L 18.740234 13 C 18.910846 12.346961 18.998128 11.674956 19 11 C 18.996215 10.324795 18.906964 9.6527857 18.734375 9 L 18 9 L 17.689453 9 A 7 7 0 0 0 17.144531 7.6835938 L 17.152344 7.6757812 L 17.884766 6.9433594 C 17.196716 5.7764039 16.223597 4.8032844 15.056641 4.1152344 L 14.328125 4.84375 L 14.316406 4.8554688 A 7 7 0 0 0 13 4.3085938 L 13 4.2949219 L 13 3.2597656 C 12.346961 3.0891541 11.674956 3.0018721 11 3 z M 9 8 L 9 14 L 14 11 L 9 8 z M 15 15 L 13 17 L 15 19 L 19 19 L 19 15 L 15 15 z M 15.599609 16 L 18 16 L 18 18 L 15.599609 18 L 14.599609 17 L 15.599609 16 z "
	 class="ColorScheme-Text"
     />
 </a>
</svg>
